X: 1822
T: Ardenza Storm's
R: reel
M: 4/4
K: Amixolydian
aged cA A2|cAcd e3f|fged cA A2|{=c}^c2 AG EFGE|
aged cA A2|cAcd e3f|gfed egaf|1 gedB BA a2:|2 gedB BAAG||
F3 E DFAF|GBed cABc|dF ~F2 GBed|cAGE EDDE|
F3 E DFAF|GBed cdeg|agec d2 ed|1 cAGE D2 DE:|2 cAGE Dz a2||

